fs/building_bank_48_filled.svg

<svg viewBox="0 0 48 48" fill="none" xmlns="http://www.w3.org/2000/svg" height="1em" width="1em">
  <path d="M25.3459 4.44693C24.5476 3.85103 23.4524 3.85103 22.6541 4.4469L6.70854 16.3487C5.3592 17.3558 6.07155 19.5009 7.75534 19.5009H40.2439C41.9277 19.5009 42.6401 17.3559 41.2908 16.3487L25.3459 4.44693ZM24 14.0014C22.8954 14.0014 22 13.106 22 12.0015C22 10.897 22.8954 10.0016 24 10.0016C25.1046 10.0016 26 10.897 26 12.0015C26 13.106 25.1046 14.0014 24 14.0014ZM6 38.2501C6 35.3508 8.3505 33.0004 11.25 33.0004H36.75C39.6495 33.0004 42 35.3508 42 38.2501V39.7501C42 40.4404 41.4404 41 40.75 41H7.25C6.55964 41 6 40.4404 6 39.7501V38.2501ZM14 31.0005H10V21.501H14V31.0005ZM18 21.501V31.0005H22V21.501H18ZM26 21.501V31.0005H30V21.501H26ZM34 21.501V31.0005H38V21.501H34Z" fill="#212121"/>
</svg>

<svg viewBox="0 0 48 48" fill="none" xmlns="http://www.w3.org/2000/svg" height="1em" width="1em">
  <path d="M25.346 4.447a2.25 2.25 0 0 0-2.692 0L6.71 16.349c-1.35 1.007-.637 3.152 1.046 3.152h32.489c1.684 0 2.396-2.145 1.047-3.152L25.346 4.447ZM24 14a2 2 0 1 1 0-4 2 2 0 0 1 0 4ZM6 38.251A5.25 5.25 0 0 1 11.25 33h25.5c2.9 0 5.25 2.35 5.25 5.25v1.5c0 .69-.56 1.249-1.25 1.249H7.25A1.249 1.249 0 0 1 6 39.75v-1.5ZM14 31h-4v-9.5h4V31Zm4-9.5V31h4v-9.5h-4Zm8 0V31h4v-9.5h-4Zm8 0V31h4v-9.5h-4Z" fill="#212121"/>
</svg>
